X:1
T:Vingt-quatre Petites Pièces Progressives pour la Guitare
T:Vingt-quatre Petites Pièces Progressives pour la Guitare
T:Op. 44
T:Fernando Sor (edited and fingered by Classical Guitar Empire)
C:Fernando Sor (edited and fingered by Classical Guitar Empire)
%%score ( 1 2 3 4 )
L:1/8
M:4/4
K:C
V:1 treble-8 nm="Classical Guitar" snm="Guit."
V:2 treble-8 
V:3 treble-8 
V:4 treble-8 
V:1
"^No. 1""^Andante" !0!e2 | !1!c2 !0!G2 !2!E2 !3!C2 | !2!B,!0!D!0!G!0!B !4!d2 !1!f2 | %3
 !4!d2 !0!B2 !0!G2 !3!F2 | !2!E!0!G!1!c!0!e !4!g2 G2 | !2!A2 !1!c2 !4!d2 !1!f2 | %6
 !0!G2 !0!B2 !1!c2 !0!e2 | !4!d2 !2!A2 d2 !1!c2 | (!1!c!0!B)!2!A!0!G !3!G,2 !0!e2 | c2 G2 E2 C2 | %10
 B,DGB d2 f2 | d2 B2 G2 F2 | EGce g2 G2 | !2!A2 !1!F,2 !0!B2 !3!G,2 | !1!c2 !0!A,2 !4!d2 !2!B,2 | %15
 !3!!0![Ce]2 !2!!1![Ec]2 !3!!4![Fd]2 !0![GB]2 | !3!!1![Cc]2 !0!G2 C2 !0!e2 | !3!d2 !0!G2 !4!g2 G2 | %18
 !1!c2 !0!e2 !2!A2 !1!c2 | !3!^F2 !1!A2 !0!D2 !4!d2 | !1!c2 !0![GB]2 !3!G,2 !4!d2 | %21
 !0!B2 !0!G2 !2!B,2 !4!g2 | !0!e2 !0!G2 !3!C2 !0!e!1!c | !0![DB]2 !4!d2 !1!c2 !2!A2 | %24
 G2 D2 G,2 e2 | c2 G2 E2 C2 | B,DGB d2 f2 | d2 B2 G2 F2 | EGce g2 G2 | A2 F,2 B2 G,2 | %30
 c2 A,2 d2 B,2 | [Ce]2 !2!!1![Ac]2 [Fd]2 [GB]2 | c2 [EG]2 z4 |] %33
[M:2/4]"^No. 2"[Q:1/4=126]"^Allegretto"!3!x!0!G !2!E!1!c | G!0!e c2 |xG Ec | Ge c2 |x!1!f !4!d2 | %38
xe c2 | !2!B!1!d !4!c!0!e | dB !0!G2 |!p!xG Ec |xe c2 |xGxc |xe c2 |xf d2 |xe c2 | %47
!3!x!4!d!0!x!0!B | !1!c2 z2 ||!mf!!0!x!0!B!0!xB |!2!x!1!c- c2 |xBxB |xc- c2 |xBx!4!d | %54
x!0!e!1!x!2!A |!0!x!1!c !2!A!4!^F | !0!G4 |xGxc |xe c2 |xGxc |xe c2 |xf d2 |xe c2 | %63
 !0!B!3!d !1!c!0!e | d!0!B G2 |xG Ec |xe c2 |xG Ec |xe c2 |xf d2 |xe c2 |xdxB | c4 |] %73
[M:3/4]"^No. 3"!p!"^Andantino"[Q:1/4=118] !2!E2 !0!G2 !1!c2 | (!1!c2 !0!B2) !4!d2 | %75
 !1!c2 !0!G2 !0!e2 | !4!d6 | !1!c2 !0!e2 !4!g2 | !2!A2 !4!d2 !1!f2 | !0!B2 c2 e2 | %80
 !4!d3 !0!B !0!G2 |!mp! !0!G2 E2 c2 | (c2 B)G !4!d2 | (!4!d!1!c) !0!Gc !0!e2 | !3!d4!mf! !4!^d2 | %85
 !0!e2 !0!B2 !1!c2 | !2!A2 !4!d2 !0!e2 | !1!f2 !2!A2 !0!B2 | c4 z2 |!mf! !3!d2 !0!G2 G2 | %90
 !0!G2 !0!e4 | !0!e2 !3!d2 !2!A2 | !1!c2 !0!B!0!D !0!GB | !3!d2 !0!G2 !4!g2- | %94
 g2 !2!^f!0!e !1!c!2!A | !0!G!0!B !3!d!1!c !2!A!4!^F | !0!G4!f! !4!=F2 | !2!E2 G2 c2 | (cB) G2 d2 | %99
 (dc) G2 e2 | d6 | c2 e2 g2 | A2 (fe) dc | B2 c2 e2 | d3 B G2 |!mf! G2 E2 c2 |!f! (c2 B)G Bd | %107
!ff! d2 cG ce | !3!d4 !4!^d2 | e2 B2 c2 | !2!A!0!B !1!c!2!^c !4!d!0!e | !4!g!1!f !2!A2 B2 | c6 |] %113
[M:2/4]"^No. 4"!mf![Q:1/4=120]"^Allegretto moderato" !0!G | !1!c3 !0!B | !1!A3 !3!d/!1!c/ | %116
 !0!B !1!f2 !4!d/!0!B/ | cd eG | c3 e | !3!d3 !4!g | !2!^f>!0!e (!4!d/!1!c/)!2!A/!4!^F/ | %121
 !0!G z z !0!G :: !2!g3 !4!a | !3!g !1!f2 !4!d | (!1!f/!0!e/)!4!d/!1!c/ !0!B/!2!A/!0!e/!4!d/ | %125
 !1!c2 BG | !1!c3 !3!^c | !4!d3 d | !4!d2- d/!2!A/!4!d/!1!c/ | !0!B2 z G | !1!c3 !0!B | %131
 !2!A!0!B/!1!c/ !4!d!1!c | B !1!f2 !4!d/!0!B/ | cd ec | g3 e/c/ | !2!A3 !4!d | %136
!0!x/>!1!c/ !0!e2 !4!d/!0!B/ |1 c2 z G :|2 c2 z |][M:3/8]"^No. 5""^Andantino"[Q:3/8=56] e/c/GG | %140
 G3 | !1!f/!4!d/GG | G3 | G/c/ee | eAf- | fB!1!c | !3!d/B/G!4!g | e/c/GG | G3 | f/d/GG | G3 | %151
 G/c/!0!ee- | e/!2!A/!4!d/!0!e/!1!f- | fB/c/d/B/ | c z G | d2 d | e2 e | (g/f/)(e/f/)d/B/ | %158
 c/e/GG | d2 d |!f! e2 e | !3!^f2 f | [Bg]2!mf! z | d2 d | e2 e | (g/f/)(e/f/)d/B/ | c/e/GG | %167
 d2 d |!f! e2 e | ^f2 f | [Bg]2!mf! G | e/c/GG | G3 | f/d/GG | G3 | G/c/ee | eAf- | f(B/d/)c/e/ | %178
 d/(^c/d/)B/G | e/c/GG | G3 | f/d/GG | G3 |x/E/G/c/e |!3!x/!2!A/!4!d/!0!e/!1!f |x!0![GB]!4![FB] | %186
 [Ec]3 |][K:G][M:3/4]"^No. 6""^Moderato"[Q:1/4=130] !4!g2 | !3!d2 !0!B2 !0!G2 | %189
 !0!D2 !1!B,2 !2!G,!0!A, | !1!B,!2!C !0!D!1!E !3!F!0!G | !2!A!0!B !1!c!3!d !0!e2 | %192
 !1!c2 !2!A2 !4!F2 |xBxGxD |xE A,2 D2 | G,2 z2!mp! !0!B2 | B2 !1!^D!4!F BA | %197
 !0!G!1!E !0!G!0!B !0!e!3!g | !1!f!4!^d !0!B!1!A !3!F!0!B | !0!G2 !2!E2!mf! !0!B2 | %200
 A!0!A, !4!^C!1!E !1!A!0!G | !3!F!1!A !2!dA FA | GB EG ^CE | D2 d2 !0!D!1!E | %204
 !3!F!0!G !1!A!3!B!>(! !4!cB | AG FE D!2!C | !1!B,D CB, A,G, | F,A,!>)!!pp! D2!mf! d!>(!!0!e | %208
 !1!f!2!g !4!a!1!b !2!c'b | ag f!0!e !3!d!1!c | B!>)!!pp!!<(!d !2!^ce !4!gc | %211
 d2 D2!<)!!mf!!0!x!4!g |!0!x!3!dx!0!Bx!0!G | D2 B,2 !2!G,!0!A, | !1!B,C DE FG | !2!AB cd e2 | %216
 c2 !2!A2 !4!F2 |xBxGxD |xE x2 !1!!2![cf]2 | !2!!0!!3![G,Bg]4 z2 |] %220
[M:2/4]"^No. 7""^Andante"[Q:1/4=76] !0!B/>!0!G/ | %221
"^Allegro"[Q:1/4=120] !0!D[GB] !2!!1![Ac]!3!!2![^A^c] | !2!d2 B2 | c2 B2 | !1!A !2!d3 | %225
 D[GB] [Ac][^A^c] | d2 Be | !3!!1![FA]!2!d- (d/!1!^c/)!0!B/c/ | !2!!1![Fd]2 z :: !3!d/!2!^c/ | %230
 !1!=c!3!f [cf][cf] | [Bg]2 !2!!1![Bd]!3!!4![ce]/>[Bd]/ | !1!cf [cf][cf] | %233
 [Bg]2 !3!!2![Bd][Bd]/>!2!!1![Ac]/ | !0!B!0!e Be | !4!d!1!^G !3!!1![Ac][Ac]/>[=GB]/ | !1!A!2!d Ad | %237
 !1!c2 !0![GB][GB]/>!2!!1![Ac]/ | !3!!2![Bd]!3!!4![ce] !2!!1![df]!0!!3![Bg] | %239
 !1!!0![ce]3 !2!!1![Ac] | [GB][Bd] [Ac][FA] | G[DB] G,2 |] %242
[M:2/4]"^No. 8""^Allegretto"[Q:1/4=126] !1!d!1!g !0!B!1!c | !1!d!1!g Bc | dg Bc | !4!e2 !1!d z | %246
 !1!g2 !1!f2 | !0!e2 !2!dB | !1!c2 !0!B2 | !1!A2 !1!dd | dg Bc | dg Bc | dg Bc | e2 d z | g2 f2 | %255
 e2 dB | !2!!1![Ac]3 !3!!1![FA] | [GB]2 z2 | !1!A3 !2!d | B3 !3!d | !2!^c3 !0!e | d2 A2 | A3 d | %263
 B3 d | ^c3 e | !1!d2 z2 | !4!e3 !4!^d | e3 !2!=d | !1!c2 !0!B2 | !1!c2 !2!^c2 | !3!d3 !1!=c | %271
 !0!B3 !2!d | c2 B2 | !1!A!0!B !1!c!1!^c | !1!dg B=c | dg Bc | dg Bc | e2 d z | g2 f2 | e2 dB | %280
 c2 B2 | A2 dd | dg Bc | dg Bc | dg Bc | e2 d z | g2 f2 | e2 dB | [Ac]3 [FA] | [GB]2 z2 |] %290
[M:4/4]"^No. 9"!p!"^Andantino"[Q:1/4=86] !0!B2 B2 !1!c2 c2 | !4!d4 e4 | %292
 !3!!1![FA]2 !0![GB]2 !2!!1![Ac]2 !3!!2![Fd]2 | !0![GB]4 z4 |!mf! B2 B2!f! !2!^c2 c2 | %295
 !1!!2![Ad]4 !0![Be]4 |!>(! !1!f2 !2!d2 e2 ^c2!>)! |1!p! [Fd]2 z2 z4 :|2!p! [Fd]4 z4 |: %299
!mp! !2!d2 !3![Bd]2 !0!e2 !0!B2 | c4 A4 | B2 B2 c2 B2 | A2!<(! !2!d2 !1!^c2 !1!=c2 | %303
 !0![GB]2 [GB]4 [GB]2!<)! |!ff! !1!c2 !0!e2 !4!g2 !3!!2![^A^c]2 | %305
!>(! !3!!2![Bd]2 [GB]2 [Ac]2 [FA]2!>)! |1!mp! G2 D2 G2 B2 :|2!mp! G2!p! [GB]2 z4 |] %308
[M:6/8]!mf!"^No. 10""^Allegretto"[Q:3/8=80] !3!d2 d | !4!g2 g{/!4!g} !3!f!0!e!3!f | !4!g2 g B2 B | %311
 !1!c2 c c!4!dc | B2 z d2 d | g2 g{/g} fef | g2 !3!g !1!f2 f | e2 e{/d} ^cBc | [Fd]2 z :: d2 d | %318
 c2 f{/g} fef | g2 d d2 d | c2 f{/g} fef | g2 z !4!b2 b | !0!B2 B !3!f2 f | !3!g2 g !0!e2 e | %324
 [Bd]2 [^A^ce]{/g} fef | g2 z :| G2 G | z2 e e2 e | !2!d3 z z2 | z2 e e2 e | d2 z g3 | f3 !1!=f3 | %332
 e2 z [ce]3 | !2!!1![Bd]2 z !2!!4![cf]2 z | [Bg]2 z!f! !0!!3![Bg]3 | [Bg]3 [Bg]3 |!ff! [Bg]6 |] %337
[M:4/4]"^No. 11"!p!"^Andante"[Q:1/4=100] !0!B2 !0!e2 !1!c2 e2 | B2 e>!2!f !3!g2 B2 | %339
 !3!f2 !0!B2 f2 B2 | !3!g7/2 !2!f/ e2 z2 |!mp! B2 e2 c2 e2 | B2 e>f g2!mf! B2 | %343
 (!4!g2 !3!f2) [Af]2 [Ge]2 | !4!^d2!p! B2 z2 z2 ::!<(! !0![GB]2 !2!!1![Ac]2 [Bd]2 [Bg]2!<)! | %346
!f! !4!g4 !3!f4 | e2 !4!g2 !3!f2 e2 | e4!mp! ^d2 z2 |!<(! !0!B2 B2 B2 B2!<)! |!ff! B7/2 e/ g4 | %351
!f! (g2 f2) !0!e2 !4!^d2 | !0![Ge]4 z4 |][M:6/8]"^No. 12"!mf!"^Andantino"[Q:3/8=60] B | B2 e e2 B | %355
 B2 f f2 B | g2 ^d e2 f | e3 !4!^d2 B | B2 e e2 B | B2 f f2 B | Bgf (!3!f!0!e)^d | %361
 !3!!4![Af]3 [EGe]2 |: B | B2 [fa] [fa]2 B | B2 [eg] [eg]2 B | c2 !3!f (f!4!g)e | e3 !4!^d2 B | %367
 B2 e e!4!!1![^df]!2!!4![=d^g] | ^g3 !4!a2 [Acf] | e>Be/!2!f/ !3!g2 f | !3!!4![Af]3 [EGe]2!fine! :: %371
[K:E]!p! B | [EG]2 [FA] [GB]2 [G^B] | [Ac]2 [Bd] [ce]2 [df] | %374
!mp! !2!!1![eg]!4!!3![df]!2!!1![ce] !2!!1![^Bd][ce]!1![Ac] | [G=B]3 [EG]2!mf! [GB] | %376
 G2 B eB!f!!3!g | !4!!1![df]2 !3![Bd] [df]2 [Bd] | %378
!>(! !2!!1![^Ac]2 !3!!4![Bd] !2!!0![ce]2 !2!!1![Af]!>)! |!p! !1![Bd]3 z2 :: B | %381
!mf! !4!g2 !3!f g2 f | !3!f>!0!e!4!d/!3!c/ B2 B | g2 f g2 f | f>ed/c/ B2 [EG] | %385
 !3!!1![FA]!1!!0![GB]!1!!2![Ac] !2!!3![Bd]!1!!0![ce]!3!!1![df] | %386
 !3!!2![eg]!3!!1![fa]!3!!1![^^f^a] !3!!1![gb] z [Bg] | !3!g!1!f!4!a !4!a!3!d!1!f | %388
 !3!!4![Af]3 !2!!1![EGe]2!D.C.! :|[K:G][M:3/8]"^No. 13""^Allegretto"[Q:3/8=72] B{/f}e/^d/e | %390
 Be/f/g | fBf | !4!a/!2!g/!1!f/g/e | B{/f}e/^d/e | Be/f/g | [Ee][Cc]!1!!3![^A,^A] | !3!B!0!BB :: %397
 !0!B!3!!1![fa]/[^e^g]/[fa] | B[eg]/[^df]/[eg] | B!2!!3![Af]!0![Ge] | !0!e!4!^dB | %401
 B[fa]/[^e^g]/[fa] | B{/!4!a}!3!!1![eg]/[^df]/[eg] | [cf]2 [A^d] |1 [Ge] z B :|2 [Ge]2 z!fine! |: %406
[K:E] B(!4!g/!2!f/)e | !1!c!4!a/!3!g/!1!f | !1!d!4!b!2!a | (!4!a!3!g)e | B(g/f/)e | ca/g/f | %412
 db!4!d | !1![Ge]2 z!D.C.! :|[K:D][M:3/4]"^No. 14""^Tempo di minuetto, moderato"[Q:1/4=130] A,2 | %415
 !4!D!3!F !1!A2 !2!d2 | !0!B2 !0!G2 !2!g!0!e | !1!c2 A,2 !4!a!2!g | !1!f2 !0!D2 !1!f!0!e | %419
 !2!d!1!c !0!B!2!A !1!^G!4!F |!2!x^G Be{/!4!^g} !2!fe | e!1!A B!3!d !1!^GB | A4 ec | %423
!2!x!3!c !0!ec ec |!1!x!3!d !2!fd fd | B!3!d!1!xB e!4!d | !2!ce z2 ec |xc ec !3!ge | %428
 !3!d!2!f!1!xd fd | !0!B!3!d !1!=f!0!B !3!d!1!^G | !2!A2 A,2 A2 | !4!D!3!F !1!A!2!d !1!fd | %432
 Bd G2 ge | ce A,2 ag | f2 D2 ag | fe !3!^d!1!f !0!B!2!A | GB E2 !4!g!3!f | ed ce AG | %438
 FE D2 !1!f!0!e | !2!d!1!c !0!B!1!A !0!G!3!F | ED CB, A,G, |xDxE (A,!3!C) | !0!D4 z2 |] %443
[M:2/4]"^No. 15"[Q:1/4=80]"^Andante" !4!a/!2!g/ | !1!f!0!e !2!d!1!c | !0!B!1!A !0!G!3!F | %446
 EF/G/ AG | FE DA, | !4!D!3!F/!1!A/ !2!d!1!f | !0!e!4!a/!3!^g/ !1!f/!0!e/!3!d/!1!c/ | %450
 !0!B/!2!A/!1!^G/!4!F/ !2!E/!0!D/!4!C/!2!B,/ | !0!A,!1!!4![ca] A, :| a/g/ | fe !4!^d2 | %454
 e!1!f !3!gg/!2!f/ | ed !2!c2 | de fd/c/ | Be/d/ cB | !2!^A!1!c !1!fA | %459
 !0!B/!0!e/!2!g/!1!f/ e/d/c/B/ | ^Ac fA | B!2!f !3!dB | !1!=ce !4!ge | !3!^d!1!f !4!ad | %464
{/!1!f} !0!e/!3!^d/e/f/ g!4!b/!3!a/ | !2!g/!4!f/!3!e/!2!d/ !2!cc | !2!d3 d | %467
 !0!e/!4!^d/e/!1!f/ e/B/e/!2!=d/ | (d/c/)B/A/ A!f!a/g/ | fe d!2!c | B!1!A !0!G!3!F | %471
 !1!E!3!F/!0!G/ AG | !3!F!1!E !0!Dd/c/ | Be c!2!f/e/ | x3 !4!a/!2!g/ |!ff! [df][Bd] [Ge][A,Gc] | %476
 [DFd]2 z2 |][M:2/4]"^No. 16"!mf!"^Andante"[Q:1/4=76] !1!A | !1!f!2!d !1!A!2!^A | B e2 d | %480
 ca/>c/ d[df] | [df]2 [ce]A | fd B^G | !1!A/!0!B/!1!c/!2!d/ !4!^d/!0!e/{/!2!g}!1!f/!0!e/ | %484
 e/^d/=d/B/ A/^G/!4!d/B/ | A2 z ::!p! A | c3 e | d3!mf! f | e!2!g !1!f!2!d | d/>c/e/>c/ A!p!!4!a | %491
 !1!c3 e | d3 d |!mp! !4!^g3 g |!mf! !4!a2 z A | fd A^A | Bg/>f/ ed | ca/>c/ d[df] | %498
 [df]2 [ce][=cf] | !4!gg/>!2!f/ !1!^e2 | !1!ff/>!0!=e/ !4!^d2 | z e/!4!d/ (d/c/)B/c/ | %502
!<(! de fg!<)! |!ff! !4!a3 a | (a/g/)f/e/ (!3!^d/!4!e/)B/e/ |!>(! e d2 c!>)! |!mf! [Fd]2 z2 :| %507
[K:F][M:3/4]"^No. 17""^Cantabile"[Q:1/4=80]!p! !2!A2 !1!f2 e2 | e2 !4!d2 !2!A2 | !2!B2 !0!e3 !4!d | %510
 d2 !3!^ce A2 | z2!mf! f3 e | !0![Ge]2 !3!!4![Fd]2 !2!!3![E_d]2 | %513
 !3!!1![Fc]2 !3!!4![Fd]2 !3!!0![Be]2 | !2!!1![Af]2 z4 | A2 f2 e2 | e2 d2 A2 | B2 e3 d | d2 ^ce A2 | %519
 z2!mf! f3 e | [Ge]2 [Fd]2 [E_d]2 |!>(! [Fc]2 [Fd]2 [Be]2 | [Af]2!>)! z4 |!mf! !1!c2 !1!f2 !4!a2 | %524
 !4!a>!3!^g !1!=g2 z2 |{!4!g} !1!f2 !0!e2 !1!d2 | !3!d2 !3!^c>!0!e !2!A2 | %527
 !0!!1!!4![A,^ca] z !1!!2!!4![=B,d^g] z !2!!4!!1![^Ce=g] z | !4!!1![df]2 !2!^c2 !4!d2 | %529
 !4!f2 !4!e2 !1!^c2 | !4!!1!!2![DFd] z A>F D2 |!f! c2 f2 a2 | a>^g =g2 z2 |{g} f2 e2 d2 | %534
 d2 ^c>e A2 |!ff! [A,^ca] z [=B,d^g] z [^Ce=g] z | [df]2 ^c2 d2 | f2 e2 ^c2 | [DFd] z!p! A>F D2 |] %539
[K:D][M:4/4]!mf!"^No. 18""^Marche"[Q:1/4=130] !2!d2 !1!A>A d2 !1!f2 | %540
 !1!a2"^harm.""^7" a2 d'2 f'2 | [fa]2 [df]>f d2 [df]2 | [ce]2"^7" a2 a2 a2 | d2 A>A d2 f2 | %544
 a2"^7""^harm." a2 d'2 f'2 | !0!e2 !2!a>a !1![B^g]2 !3!!4![db]2 | %546
 !2!!1![ca]2"^7""^harm." a2"^12" A2 z2 :: !3!!1![fa]2 [fa]>!4!b a2 [^df]2 | %548
 [eg]2"^5""^harm." a>"^4"c'"^3" e'2 !3!g2 | !2!!1![df]2 !3!!1![fa]2 !3!!1![eg]2 [df]2 | %550
 [ce]2 !4!a>a a2 a2 | a2"^7""^harm." f'>d' a2 a2 | [eg]2"^3""^harm." e'>"^4"c'"^5" a2 g2 | %553
 [df]2 [Aa]2 [Ff]2 [Dd]2 | a2 A>A A2 z2 |!f! !2!d2 !1!A>A d2 !1![Af]2 | d2 A>A d2 [Af]2 | %557
 !0!D2 !3!!2![Fd]2 !0!!2![Gce]2 !2!!1!!3![A=cf]2 | !3!g2 z2"^har.""^5"!ff! [d'g'b']4 | %559
!mf!!<(! !0!!2![eg]2 !3![gc']>[gc'] c'2 [gc']2!<)! |!ff! !1!!4![fd']2 [fa]4 [df]2 | %561
 e2 f>g B2 [Gc]2 | [DFd]2 [A,Fd]2 [DFd]2 z2 :| %563
[M:6/8]"^No. 19"!mf!"^Allegretto"[Q:3/8=78] !4!!3!!1![DFA]z[DFA] [DFA]2 !3!!1!!2![FAd] | %564
 [FAd]2 !1!!2![Adf] [Adf]2 !3!!1![fa] | a3{/!3!g} !1!f>ef | [eg]2 !2!!1![df] !1!!0![Ae]2 z | %567
 [FA]z[DFA] [DFA]2 [FAd] | [FAd]2 [Adf] [Adf]2 [fa] | a2 f e>fe | !1!dzd d2 z :| !0!eze e2 !4!a | %572
 e2 a e2 a |{/!4!a} !3!^g>!1!fg !0!efg | a3 e3 | e2 e e2 a | e2 a e2 a |{/a} ^g>fg efg | %578
 a3!f!"^har.""^7" a3 ||!mf! [DFA]z[DFA] [DFA]2 [FAd] | [FAd]2 [Adf] [Adf]2 [fa] | a3 f>ef | %582
 [eg]2 [df] [Ae]2 z | [DFA]z[DFA] [DFA]2 [FAd] | [FAd]2 [Adf] [Adf]2 [fa] | a2 f efe | %586
 d2 d d2 z!fine! |:!p! !3!!2!!1![GBd]3 !0![GB]!2!!1![A=c]!3!!2![^A^c] | !2!d3 !2!g3 | %589
{/!4!g} !3!f>ef !3!g2 !4!^g | !3!!4![=ca]3 !1!d3 |!mf! !>![GBd]3 [GB][A=c][^A^c] | d3 g3 | %593
 f2 f{/g} fef | [Bg]2 z4!D.C.! :|[K:A][M:2/4]"^No. 20""^Andantino"[Q:1/4=88] [Ac][Bd] | %596
 !3!!2![^B^d]!3!!2![ce] !3!!2![ca]!2!!1![eg] | !3!!4![c^e]!3!!4![=df] !3!!2![=Bd]!1!!2![Ac] | %598
 !1!!0![GB]!2!!3![Ac] !3!!2![Bd]!1!!0![Ge] | !3!!2![Bd]!1!!2![Ac] [Ac]!2!!1![Bd] | %600
 !2!!1![^B^d]!2!!1![ce] !3!!2!!1![Aca]!4![Acf] | !3!^d!2!f !0!e!3!g | !1!f!4!a !3!^d!1!f | %603
 [E,Ge] z :: !0!ee | (!4!b!1!g) ee | (!0!e!4!a) ee | !2!d!0!e !2!ce | B2 ee | (bg) ee | %610
 !4!c'!1!a ee | !2!!1![^B^d][=B=d] [^Ac][=A=c] | [GB] z!mp! [Ac]!mf![Bd] |!f! [^B^d][ce] [ca][eg] | %614
 [c^e][=df] [=Bd][Ac] | [GB][Ac] [Bd][ce] | [Ac]e [ca][eg] | !3!!2![df]2 [df][df] | %618
 !0!e2 !0!e!4!a | [df][Bd] [GB]e | [A,A] z :| z2 |] %622
[M:3/4]"^No. 21"!p!"^Andante"[Q:1/4=90] !0!e2 !4!a2 !3!g2 |{!3!g} !1!f2 e2 c2 | %624
!<(! !2!d2- (3d!1!c!2!d (3B!3!fe!<)! |!mf! [Bd]2 [Ac]2 z2 |!mf! e2 a2 !4!g2 | %627
 (!4!g2 !1!f)!4!^d!>(! eB | c>e B2 ^d2!>)! |!p! !3!!4![Af]2!<(! [Ge]2 z2!<)! | %630
!mf! e>!3!f e2 !2!c2 | !3!!2![Bd]4 [GB]2 |!>(! !1![Ac]2 [Ac]2 !3!!2![Bd]2 | %633
 [Ac]4!>)!!p! !1!!0![GB]2 |!mp! [ce]2 !3!!2![df]3 [ce] | !2!!1![^Ac]2 !3!!2![Bd]2 !0![GB]2 | %636
!<(! !1!c7/2 !4!e/ !3!^d>!1!f | !1!!0![Ge]4 z2!<)! |!ff! e2 a2 g2 |{g} f2 !0!e2 c2 | %640
 !2!d2- (3dcd (3Bfe | [Bd]2 [Ac] z z2 |!f!(3!1!x!2!c!1!e (3!1!aaa a2 | %643
!ff!(3!3!x!0!B!1!f (3!4!aaa (3a!3!!2![^B^d][Bd] | [ce]7/2 [Ac]/ [Bd]>[GB] | %645
!mp! A z!p! !1!!4![ca] z z2 |][K:C][M:2/4]!mf!"^No. 22""^Andantino"[Q:1/4=86] ee ee | e2 a2 | %648
 [df][ce] [Bd]!3!!2![Ac] | B e3- | e e2 e | e2 ^f2 |!p! z e2 ^d |!<(! e3 !4!=d!<)! |!f! ee ee | %655
 e2 a2 | [df][ce] [Bd][Ac] | B e3 | z e ee | e2 ^f2 | [GB] e2 ^d | [Ge]2 z2 |:!mp! e3 e | %663
!mf! !1!f4 | e3 e |!mf! f4 |!mf! e[ce] !3!!4![_Bg][Bg] |"^I" !4!g!1!f !1!c2- | %668
 c!1!^c !4!d!4![A^d] | [^Ge]2 z2 |!f! ee ee | e2 a2 | [df][ce] [Bd][Ac] | B!<(!e ^d=d!<)! | %674
!ff! z!mf! !4!a ^g=g | [eg][df] [ce][Bd] |!>(! [Ac][Ac] [Bd][^GB]!>)! |!p! !3!A!2!!1![Ec] z2 :| %678
[M:6/8]!p!"^No. 23""^Allegro moderato"[Q:3/8=84]{/B,} A,^G,A, E,2 C | A,2 E C2 A | %680
 E2 A{/!1!A} !4!c>BA | ^G2 B E z2 |!mf! e2 e (!4!g!1!f)e | [CAe]3 [DBd]3 | c>Bc [Bd]2 [^GB] | %685
 A2 [Ec]- [Ec] z2 ::!p!!<(! [Ec]2 [Ge] [Ec]2 [Ge] | [Ec]2 [Ge] [Ec]2 [Ge]!<)! | %688
!mf! !3!!4![Fd]2 !0!!1![G^c] [Fd]2 [GB] | [Ec]2 [Ge] !4!g3 |!p!!<(! [Ec]2 [Ge] [Ec]2 [Ge] | %691
 [Ec]2 [Ge] [Ec]2 [Ge]!<)! |!mf! d2 B G!1!AB | [CEc]2 [CGe] [CEc]2 z | A,^G,A, E,2 C | A,2 E C2 A | %696
 E2 A c>BA | ^G2 B E2 z |!f! e2 e gfe | [CAe]3 [DBd]3 |{/!4!d} !1!c>Bc [Bd]2 [^GB] | %701
 [A,A]2 [Ec] A,2 z!fine! ::[K:A]!>(! [ce]3 [df]2 [ce]!>)! |!p! [^B^d]2 [ce] [=df]2 [eg] | %704
 [fa]2 [^eg]{/!4!b} !1![fa]2 [=eg] | [eg]2 [df] [ce]2 z |!mf! !3!d3 d3 | !2!c!1!e!1!a (!4!c'b)a | %708
 (!1!g!0!e)!4!b (ge)b | !2!!1![ca]3 z z2!D.C.! :|[M:3/8]"^No. 24""^Valse"[Q:3/8=70] !1!g/!1!a/ | %711
 !0!eeg/a/ | eex/e/ |!3!x/!0!B/!1!g/!0!e/!4!b/!1!g/ | !1!a!0!eg/a/ | ee(!1!g/4!2!a/4!4!b/4!2!a/4) | %716
 eex/e/ |x/B/g/e/b/g/ | [A,ca] z :: (!3!^d'/!4!e'/) | !0!ee!1!g/!4!b/ | (!2!a!0!e)(^d'/e'/) | %722
 eeg/b/ | aeg/a/ | e(!4!c'/!1!a/!0!e) | !3!f!2!b/>^a/b/>c'/ | !4!d'!1!!3![dg][dg] | %727
 !1!!4![A,ca] z :: !4!!1![fa]/>a/ | [fa]!3![df][fa]/>a/ | [fa][df][fa]/>a/ | [fa][df]!0!!4![e=g] | %732
 !3!!1![Ae] z (3A/A/A/ | .A(3A/A/A/.A | (3A/A/A/.A(3A/A/A/ |x!1!!3!!2!!4![Ae=gc'][Aegc'] | %736
 !0!!1!!4![Ddfd'] z :| !1!f |!mp!!2!x/!1!f/!3!x/f/!4!c' |!3!x/!1!f/!1!x/f/!4!d' | %740
!1!x!2!!4![e^a]!3![cea] |!mf! !4!^a!4!b!2!=f |!mp!!2!x/!1!e/!3!x/e/!4!b |!3!x/!1!e/!2!x/e/!4!c' | %744
!mf!!1!x!2!!4![dg][dg] | !4!g!4!a!0!e- | e/!2!^d/!3!!4![=ca][ca] | (!4!a/!2!g/)!0!ee- | %748
 e/^d/[=ca][ca] | !1!!3!!2![Beg]2 (!4!b/g/) | e2 (b/g/) | e2 (b/g/) | eee | e2 g/a/ | %754
!f! ee(g/4a/4b/4a/4) | eex/e/ |x/B/(g/e/)(b/g/) | aeg/a/ | ee(g/4a/4b/4a/4) | eex/e/ | %760
x/>B/(g/e/)(b/g/) | [A,ca] z (^d'/e'/) | ee(g/b/) | ae(^d'/e'/) | ee(g/b/) | ae(!4!c'/>!1!a/) | %766
 !1!e!2![ce]!3![c^e] | !2!!3![df]{/!4!c'}!2!b/!1!^a/!2!b/!4!c'/ | !4!d'!ff!!3!!2!!4![Bdg][Bdg] | %769
 !1!!4![A,Aca]2"^fine" z |] %770
V:2
 x2 | x8 | x8 | x8 | x8 | x8 | x8 | x8 | x8 | x8 | x8 | x8 | x8 | x8 | x8 | x8 | x8 | x8 | x8 | %19
 x8 | x8 | x8 | x8 | x8 | x8 | x8 | x8 | x8 | x8 | x8 | x8 | x8 | C4 C4 |][M:2/4] C4- | C4 | C4- | %36
 C4 | !2![B,G]4 | [CG]4 | !3!G4- | G4 | C4- | C4 | C4- | C4 | [B,G]4 | [CG]4 | F2 G2 | %48
 !2!E!0!G !3!C2 || G2 D2 | A2 D2 | G2 D2 | A2 D2 | G2 !2!B,2 | !3!C4 | D3 z | z !3!G, !0!A,!2!B, | %57
 C4- | C4 | C4- | C4 | [B,G]4 | [CG]4 | !0!G4 | G2 z2 | C4- | C4 | C4- | C4 | [B,G]4 | [CG]4 | %71
 F2 G2 | EG C2 |][M:3/4] !3!C6 | !0!D4 !3!F2 | !2!E4 !3!C2 | !2!B,2 !0!G2 !3!F2 | !2!E6 | !3!F6 | %79
 !0!G!3!F E2 C2 | !0!G2 !3!G,4 | !3!C6 | D4 !3!F2 | !2!E4 !3!C2 | !1!B,2 !0!G4 | %85
 !3!C2 !0!D2 !2!E2 | !3!F4 !2!E2 | !0!D4 !0!G2 | C2!p! EG C2 | !1!B,6 | !2!C3 !1!B, !0!A,!2!G, | %91
 !1!^F,6 | !3!G,4 z2 | !1!B,6 | !3!C6 | !0!D4 z2 | z2 !3!G,4 | !3!C6 | D4 F2 | E4 C2 | B,2 G2 F2 | %101
 E6 | F6 | GF E2 C2 | B,2 G,2 z2 | C6 | D4 F2 | E4 C2 | !1!B,2 !0!G4 | C2 D2 E2 | !3!F6 | %111
 !0!D4 G2 | C!p!G EG C2 |][M:2/4] x | z !3!C !2!E2 | z !2!F !0!D2 | z !3!G, !0!G!3!F | ED C2 | %118
 z E C2 | z !1!B, !0!G2 | z !3!C !0!D z | z !1!G, !3!G2 :: z !1!E !3!^C!0!A, | %123
 z !0!D/!3!C/ !2!B,x/!0!G/ | !3!C!2!E !3!F2 | z G !3!G,2 | z !0!E, !0!G2 | z !1!F, !2!A2 | %128
 z !1!^F, !0!D2 | z !3!G, !0!G!4!F | !2!E!0!D !3!C!0!D/E/ | !3!F!2!E !0!D!2!E/!3!F/ | %132
 G!3!G, !0!G!3!F | ED C2 | z E, G2 | z !1!F, !3!F2 | G2 !3!G,2 |1 C[EG] C z :|2 C[EG] C |] %139
[M:3/8] C3- | CEC | !2!B,3- | B,B,B, | C3 | F3 | G3- | G z2 | C3- | CEC | B,3- | B,B,B, | C3 | %152
 !3!F3 | G3 | C z2 | B,2 z | C2 z | D3 | E3 | B,3 | C3 | x/ !0!D2 z/ | GGG | B,3 | C3 | DGF | E3 | %167
 B,3 | C3 |x/D/A/c/x/c/ | G2 z | C3- | CEC | B,3- | B,B,B, | C3 | F3 | G3- | G2 z | C3- | CEC | %181
 B,3- | B,B,B, | C3 | F3 | !3!G,3 | C3 |][K:G][M:3/4] x2 | x6 | x6 | x6 | x6 | x6 | G2 D2 B,2 | %194
 C2 x4 | x6 |x!2!B, x4 | x6 | x6 | x6 | x6 | x6 | x6 | x6 | x6 | x6 | x6 | x6 | x6 | x6 | x6 | %211
 x4 G2 | D2 !1!B,2 !2!G,2 | x6 | x6 | x6 |!1!x!0!ex!1!cx!2!A | G2 D2 B,2 | C2 A,2 !0!D2 | x6 |] %220
[M:2/4] x | x4 | !3!B2 GD | AD GD | !3!F2 !0!D2 | x4 | B2 G2 | !0!A,4 | z !3!D !0!D :: x | %230
 !2!A!0!D AD | GD z2 | !2!AD AD | GD z2 | !1!^G!2!E GE | !0!A,2 z2 | !3!F!4!D FD | !3!G,3 z | x4 | %239
 z !3!C/>!2!B,/ !0!A,!3!C | D3 z | x4 |][M:2/4] !2!B2 !0!G!2!A | !2!B2 GA | B2 GA | %245
 !3!c2 !2!B!0!G | !3!e!0!G !2!dG | !1!cG !3!BG | !2!A!4!F !0!G!0!D | !3!F!4!D z2 | B2 GA | B2 GA | %252
 B2 GA | c2 BG | eG dG | cG BG | z !3!C !0!D z | z D G,2 | !3!F!4!D FD | GD GD | GD GD | FD FD | %262
 FD FD | GD GD | GD GD | !2!F!3!D !0!DD | !3!c!0!D c!3!B | cD c!3!B | !2!A!0!D !1!^G!2!E | %269
 !2!AD !0!=GD | !4!F!0!D F!2!A | !0!G!0!D G!3!B | AD GD | !3!F!0!G !2!A!2!^A | !2!B2 G=A | B2 GA | %276
 B2 GA | c2 BG | eG dG | cG BG | AF GD | FD z2 | B2 GA | B2 GA | B2 GA | c2 BG | eG dG | cG BG | %288
 z C D z | z D G,2 |][M:4/4] !3!G,4 !0!A,4 | !2!B,4 !3!C4 | !4!D6 z2 | z2!<(! G,2 B,2 D2!<)! | %294
 G4 !1![EG]4 | !3!F2 !0!D2 !0!G2 G,2 | A,8 |1 D2 D2 C2 A,2 :|2 !3!D2 D2 !0!D2 D2 |: D4 !1!^G4 | %300
 A2 D2 F2 D2 | G2 D2 A2 G2 | F4 z4 | z2 !4!G2 !3!F2 !2!=F2 | !2![EG]6 !1!_E2 | !0!D6 z2 |1 x8 :|2 %307
 z2 D2 G,4 |][M:6/8] x3 | [GB]2 D !2!!1![Ac]2 D | [GB]2 D G2 D | !2!A2 D A2 D | G2 z4 | %313
 [GB]2 [DB] [Ac]2 [Dc] | [GB]2 !1![A^c] !3!!2![Bd]2 z | [GB]2 G, [A,G]3 | D2 z :: x3 | %318
 A2 D [Ac]2 D | [GB]2 z4 | A2 D [Ac]2 D | [GB]2 z4 | z2 z !1!^D3 | !2!E3 !3!C2 z | D6 | [GB]2 z :| %326
 x3 | !3!G,6 | (!3!B2 !0!G) G2 G | G,6 | B2 z BGB | AcA !0!B!3!dB | c2 z CEG | D3 !1!D3 | %334
 G2 z !0!G!0!D!1!B, | !2!G,B,D GB,D | G,6 |][M:4/4] !2!!0![EG]4 !3![EA]4 | !1![EG]6 z2 | %339
 !1!!2![^DA]4 [DA]4 | E4 G2 z2 | [EG]4 [EA]4 | [EG]6 E,2 | [A,Ac]4 z2 !1!^A,2 | %344
 !1!!3![B,F]2 z2 B,2 z2 :: !3!G,4 z2 G2 | A4 !0!D2 !1!!2!!0![^DAB-]2 | %347
 [EGB]2 [E,B]2 [A,A]2 !1![^A,G]2 | B,4 F2 z2 | !4!^D8 | !2!E2 E,4!mf! G2 | z2 A,2 !1!B,4 | %352
 !2!E2!p! !1!B,2 E,4 |][M:6/8] x | [EG]6 | [^DA]6 | [EG]2 [FA] [GB]2 [A,Ac] | !1!B,3- B,2 z | %358
 [EG]3- [EG]2 [EG] | [^DA]3- [DA]2 [DA] | [EG]2 [A,Ac] [B,GB]2 [FA] | E,3- E,2 |: x | ^D6 | E6 | %365
 A,3- A,2 !1!^A, | !1!B,3- B,2 z | E3 E,3 | A,3- A,2 A, | !1![B,G]3 z B[^DA] | E,3- E,2 ::[K:E] x | %372
 E,6 | E,6 | E,3 E,3 | z E,E, E,2 z | E,6 | !1!F,6 | !1!F,6 | !4!B,!1!F!3!D B,2 :: x | !1!D3 D3 | %382
 !2!E3 z [EG][EG] | D3 D3 | E3 x x x | E, z E, E, z E, | E,3 z2 E, | !0!!1![A,c]3 !1![B,A]3 | %388
 E,3- E,2 :|[K:G][M:3/8] [E,G]3 | [E,G]3 | [^DA]3 | [E,G]3 | [E,G]3 | [E,G]3 | x3 | !1!B,3 :: x3 | %398
 x3 |x!1!B,B, | !3![B,F]3 | x3 | x3 | AA,B, |1 E,2 z :|2 E,E,E, |:[K:E] !1![E,G]3 | !1![E,A]3 | %408
 !1![E,B]3 | [E,B]3 | [E,G]3 | [E,A]3 | [E,B]2 !1!A | E,E,E, :|[K:D][M:3/4] x2 | x6 | x6 | x6 | %418
 x6 | x6 | E4 !0!D2 | !3!C2 D2 !2!E2 | z2 A,4- | [A,A]6 | [A,A]6 | A,6 | z2 A,4- | [A,A]6 | A,6- | %429
 A,4 z2 | x6 | x6 | x6 | x6 | x6 | x6 | x6 | x6 | x6 | x6 | x6 | F,2 G,2 !4!!0!A,2 | x6 |] %443
[M:2/4] x | x4 | x4 | x4 | x4 | x4 | x4 | x4 | x3 :| x | z3 !3!B/!1!A/ | G!3!F !1!E z | %455
 z3 !1!A/!0!G/ | FE D z | G4 | !3!F3 F | !0!G4 | F3 F/!1!E/ | D4 | !2!E4 | !2!F4 | !0!G2 z2 | %465
 z3 !1!A/!0!G/ | !3!F/!1!E/!0!D/!3!C/ !1!B,/!3!C/!1!B,/!0!A,/ | !3!^G,4 | A,3 z | D3 !1!E/!4!F/ | %470
 G!3!F !1!E!4!D | !3!C!1!B, A,B,/C/ | !4!D2 x F | G^G A!3!^A | [Bd][Bg] [ce]!1!A | x4 | x4 |] %477
[M:2/4] x | !4!D2 !3!F2 | G2 ^G2 | AG FD | AA, z2 | D3 D | !3!C4 | D2 !2!E2 | z E A, :: x | %487
 z A, G2 | z A, FD | !3!CA, D!3!F | A2 z2 | z A, G2 | z A, F2 | z A,- !1![A,=Fd]2 | z !1![Ec] A,2 | %495
 D2 F2 | GE/>F/ G^G | AG FD | AA, z D | [GB]3 [GB] | !3!!2![F^A]2 z !1![F=A] | [E^G]2 [A,=G]2 | %502
 [DF]C DE | !3!F4 | [GB]2 z2 | A,4 | !3!D!0!A, !3!D z :|[K:F][M:3/4] z2 D2 !2!E2 | !3!F6 | %509
 !4!G4 !1!^G2 | !2!A2 A,4 | z2 D2 A,2 | !1!B,6 | A,2 !1!B,2 !2!C2 | z!p! !4!F !3!C!0!A, !1!F,2 | %515
 z2 D2 E2 | F6 | G4 ^G2 | A2 A,4 | z2 D2!f! A,2 | B,6 | A,2 B,2 C2 | z!pp! F CA, F,2 | %523
 !3!!2![FA]4 [Fc]2 | !1![CB]4 !2!!1![^CB]2 | !0!!2![DA]2 !3!!0![G,G]2 !2!!1![^G,F]2 | %526
 !1![A,E]4 z2 | x6 | !0!D2 !1!!0![EG]2 !3!!2![FA]2 | !3!!1![GB]4 !0![A,G]2 | x6 | [FA]4 [Fc]2 | %532
 [CB]4 [^CB]2 | [DA]2 [G,G]2 [^G,F]2 | [A,E]4 z2 | x6 | D2 [EG]2 [FA]2 | [GB]4 [A,G]2 | x6 |] %539
[K:D][M:4/4] D2 z2 !3!F2 !2!d2 | !3!f2 x2 x2 x2 | D4 F2 D2 | A,2 x2 x2 x2 | D2 F4 d2 | %544
 f2 x2 x2 x2 | !3![A,c]4 E,4 | A,2 x2 x2 x2 :: A,8 | A,2 x>x x2 !1!c2 | A,2 z2 A,2 z2 | %550
 A,2 !1!A2 A2 A2 | A,8 | A,2 x>x x2 e2 | x8 | A2 A,2 A,2 z2 | !4!D8 | D8 | x8 | [GB]2 !2!G,2 x4 | %559
 A,6 A,2 | D4!mf! D4 | [GB]4 z2 A,2 | x8 :|[M:6/8] x6 | x6 | f3 !2!d3 | x6 | x6 | x6 | f2 d A3 | %570
 !2!Fz!3![DF] [DF]2 z :| !1![A,c]z[A,c] [A,c]2 [A,c] | [A,c]2 [A,c] [A,c]2 [A,c] | %573
 !2![A,d]3 [A,d]3 | A,2 A, A,2 A, | [A,c]2 [A,c] [A,c]2 [A,c] | [A,c]2 [A,c] [A,c]2 [A,c] | %577
 [A,d]6 | [A,c]3 x3 || x6 | x6 | f3 d3 | x6 | x6 | x6 | f2 d A3 | F2 [DF] [DF]2 z |: x6 | %588
 !3!B2 !4!G !0!B2 !0!D | A2 D G2 D | !1!F2 !0!D !2!!3![F=c]2 !0!D | x6 | B2 G B2 D | %593
 [A=c]2 z [DAc]3 | G2 D G,2 z :|[K:A][M:2/4] x2 | A,4 | =D4 | !2!E2 E,2 | A,4 | A,4 | %601
 !1!!0![AB]2 !1!!0![GB][E,B] | !1![A,c]2 !1![B,A][B,A] | x2 :: x2 | !3![E,d]4 | !1![E,c]4 | %607
 !3!!4![G,B]2 !1![A,A]2 | E,2 z2 | [E,d]4 | !2![E,c]4 | E,2 E,2 | E, z A,A, | A,4 | =D4 | E2 E,2 | %616
 A,2 z2 | !0!D!4!C !1!B,!0!A, | !3!G,E, A,2 | D2 EE, | x2 :| x2 |][M:3/4] A,6 | A,6 | A,2 A,2 A,2 | %625
 A,3!p! A, EC | A,3 !3!C !1!E!2!^E | !3!!1![FA]4 G2 | ^A,2 B,2 B,2 | E,6 | E,6 | E,6 | E,6 | E,6 | %634
 E,6 | E,6 | E,6 | E,6 | A,6 | A,6 | A,2 A,2 A,2 | A,2- (3A,!mf!A,G, (3A,CE | =G6 | F4 !1!=F2 | %644
 E2!>(! E,4!>)! | A, z A, z z2 |][K:C][M:2/4] [Ac][Ac] [^GB][Bd] | [Ac]2!4!xA, | D3 !1!^D | %649
 [E^G]2 [^FA][GB] | [Ac][Ac] [^GB][Bd] | [Ac]4 | [=GB]2 [^FA]2 | [EG][D^G] [CA]!2!!1![B,G] | %654
 [A,Ac][Ac] [^GB][Bd] | [Ac]2xA, | D3 ^D | [E^G]2 [^FA][GB] | [Ac][Ac] [^GB][Bd] | z3!p! A, | B,4 | %661
 z E E,2 |: C4 | !3!C4 | C4 | C4 | C2 z !1!E | !3!!2![FA]4 | [FA]3 z | z E/D/ CB, | %670
 A,[Ac] [^GB][Bd] | [Ac]2x!mf!A, | D3 ^D | [E^G]2 z2 | A,4 | D4 | E2 E,2 | A,2 A,2 :|[M:6/8] x6 | %679
 x6 | x6 | x6 | [D^GB]6 | x6 | [EA]3 E,3 | A,3 A, z2 :: C3 C3 | C3 C3 | !2!C3 C3 | C3 C3 | C3 C3 | %691
 C3 C3 | [CF]6 | x6 | x6 | x6 | x6 | x6 | [D^GB]6 | x6 | [EA]3 E,3 | x6 ::[K:A] A,6- | A,6- | %704
 A,6- | A,6 | !2!G3 E,3 | A,6 | !3![E,d]6 | A,2 !3!A A,2 z :|[M:3/8] x | !2![A,c][A,c] z | %712
 [A,c][A,c]c | E,3 | !2![A,c]2 z | [A,c][A,c] z | !2![A,c][A,c]c | E,3 | x2 :: x | E,3- | E,3 | %722
 E,3 | [A,c]2 z | !2![A,c]2 c | !0!!2![Dd] z2 | z !1!E!0!E, | x2 :: x | !0!D3 | z3 | x3 | x3 | x3 | %734
 x3 | !0!A,3 | x2 :| x | ^A3 | B3 | F3 | !0!B2 z | G3 | A3 | E3 | A,3 | E,3- | E,3- | E,3- | %749
 E,2 z | E,3 | E,3 | E,3 | [Gd]2 z | [A,c][A,c] z | [A,c][A,c]c | [E,d]3 | [A,c]2 z | %758
 [A,c][A,c] z | [A,c][A,c]c | [E,d]3 | x3 | E,3- | E,2 z | E,3 | [A,c]2 z | A,3 | D2 z | z !1!EE, | %769
 x3 |] %770
V:3
 x2 | x8 | x8 | x8 | x8 | x8 | x8 | x8 | x8 | x8 | x8 | x8 | x8 | x8 | x8 | x8 | x8 | x8 | x8 | %19
 x8 | x8 | x8 | x8 | x8 | x8 | x8 | x8 | x8 | x8 | x8 | x8 | x8 | x8 |][M:2/4] x4 | x4 | x4 | x4 | %37
 x4 | x4 | x4 | x4 | x4 | G2 x2 | x2 E2 | G4 | x4 | x4 | x4 | x4 || x4 | x4 | x4 | x4 | x4 | %54
 x2 c2 | x4 | x4 | x2 E2 | G2 x2 | x2 E2 | G2 x2 | x4 | x4 | x4 | x4 | x4 | G2 x2 | x4 | G2 x2 | %69
 x4 | x4 | x4 | x4 |][M:3/4] x6 | x6 | x6 | x6 | x6 | x6 | x6 | x6 | x6 | x6 | x6 | x6 | x6 | x6 | %87
 x6 | x6 | x6 | x6 | x6 | x6 | x6 | x6 | x6 | x6 | x6 | x6 | x6 | x6 | x6 | x6 | x6 | x6 | x6 | %106
 x6 | x6 | x6 | x6 | x6 | x6 | x6 |][M:2/4] x | x4 | x4 | x4 | x4 | x4 | x4 | x4 | x4 :: x4 | x4 | %124
 x4 | x4 | x4 | x4 | x4 | x4 | x4 | x4 | x4 | x4 | x4 | x4 | x4 |1 x4 :|2 x3 |][M:3/8] x3 | x3 | %141
 x3 | x3 | x3 | x3 | x3 | x3 | x3 | x3 | x3 | x3 | x3 | x3 | x3 | x3 |x/G/ G2 |x/G/ G2 | x3 | x3 | %159
x/G/ G2 |x/E/G/c/ z |x/x/!2!A/!1!c/ z | x3 |x/G/ G2 |x/G/ G2 | x3 | x3 |x/G/ G2 |x/E/G/c/x/c/ | %169
 x3 | x3 | x3 | x3 | x3 | x3 | x3 | x3 | x3 | x3 | x3 | x3 | x3 | x3 | x3 | x3 | x3 | x3 |] %187
[K:G][M:3/4] x2 | x6 | x6 | x6 | x6 | x6 | x6 | x6 | x6 | x6 | x6 | x6 | x6 | x6 | x6 | x6 | x6 | %204
 x6 | x6 | x6 | x6 | x6 | x6 | x6 | x6 | x6 | x6 | x6 | x6 | x6 | x6 | x6 | x6 |][M:2/4] x | x4 | %222
 x4 | x4 | x3 !3!B/>!0!G/ | x4 | x4 | x2 !0!G2 | x3 :: x | x4 | x4 | x4 | x4 | x4 | z !2!E2 z | %236
 x4 | !2!A!0!D x2 | x4 | x4 | x4 | x4 |][M:2/4] x4 | x4 | x4 | x4 | x4 | x4 | x4 | x4 | x4 | x4 | %252
 x4 | x4 | x4 | x4 | x4 | x4 | x4 | x4 | x4 | x4 | x4 | x4 | x4 | x4 | x4 | x4 | x4 | x4 | x4 | %271
 x4 | x4 | x4 | x4 | x4 | x4 | x4 | x4 | x4 | x4 | x4 | x4 | x4 | x4 | x4 | x4 | x4 | x4 | x4 |] %290
[M:4/4] !0!G2 G4 G2- | G2 G4 G2 | x8 | x8 | x8 | x8 | !1!A2 !3!F2 G4 |1 x8 :|2 x8 |: x8 | x8 | x8 | %302
 x8 | x8 | x8 | x8 |1 x8 :|2 x8 |][M:6/8] x3 | x6 | x6 | x6 | x6 | x6 | x6 | x6 | x3 :: x3 | x6 | %319
 x6 | x6 | x6 |x2>x2!0!B!2!A | !0!G3- G2 !1!c | x3 [=A=c]3 | x3 :| x3 | x2 c cGc | x6 | x2 c cGc | %330
 x6 | x6 | x6 |!3!x!4!G!0!Bx!3!A!0!D | x6 | x6 | x6 |][M:4/4] x8 | x8 | x8 | G2 B2 x4 | x8 | x8 | %343
 x8 | x8 :: x8 | c6 x2 | x8 | G2!mf! B2 x4 | x2 !2!!1![FA]2 [FA]2 [FA]2 | G6 B2 | %351
 [Ac]4 !0![GB]2 !3!!1![FA]2 | x8 |][M:6/8] x | x6 | x6 | x6 | GBG !3!F2 x | x6 | x6 | x6 | %361
 z !1!^D!2!B, x x |: x | x6 | x6 | A3 z2 G- | G!2!^A!0!B !3!F2 x | G3- G!1!A!3!B | %368
x[Bd][Bd] !3!c2 x | x6 | z !2!B,!1!^D x x ::[K:E] x | x6 | x6 | x6 | x6 | E3 G2 !4!e | x6 | x6 | %379
 x5 :: x | z !2!!0![AB]2 z [AB]2 | z !1!!0![GB]2 x x2 | z [AB]2 z [AB]2 | z [GB]2 x x2 | x6 | x6 | %387
 x6 | z !1!D!2!B, x x :|[K:G][M:3/8] x3 | x3 | x3 | x3 | x3 | x3 | x3 | x3 :: x3 | x3 | x3 | x3 | %401
 x3 | x3 | x3 |1 x3 :|2 x3 |:[K:E] x3 | x3 | x3 | x3 | x3 | x3 | x3 | x3 :|[K:D][M:3/4] x2 | x6 | %416
 x6 | x6 | x6 | x6 | x6 | x6 | x6 | x6 | x6 | x2 ^G4 | !1!A4 z2 | x6 | x2 A4 | x6 | x6 | x6 | x6 | %433
 x6 | x6 | x6 | x6 | x6 | x6 | x6 | x6 | x6 | x6 |][M:2/4] x | x4 | x4 | x4 | x4 | x4 | x4 | x4 | %451
 x3 :| x | x4 | x4 | x4 | x4 | x4 | x4 | x4 | x4 | x4 | x4 | x4 | x4 | x4 | x4 | x4 | x4 | x4 | %470
 x4 | x4 | x4 | x4 | x4 | x4 | x4 |][M:2/4] x | x4 | x4 | x4 | x4 | x4 | x4 | x4 | x3 :: x | x4 | %488
 x4 | x4 | x4 | x4 | x4 | x4 | x4 | x4 | x4 | x4 | x4 | x4 | x4 | x4 | x4 |x!1!A !2!d!1!c | x4 | %505
 z [FA] [EG]2 | x4 :|[K:F][M:3/4] x6 | x6 | x6 | x6 | A2- A2 G2 | x6 | x6 | x6 | x6 | x6 | x6 | %518
 x6 | A2 A2 G2 | x6 | x6 | x6 | x6 | x6 | x6 | x6 | x6 | x6 | x6 | x6 | x6 | x6 | x6 | x6 | x6 | %536
 x6 | x6 | x6 |][K:D][M:4/4] x8 | x8 | x8 | x8 | x8 | x8 | x8 | x8 :: x8 | x8 | x8 | x8 | %551
 f2 x>x x2 f2 | x8 | x8 | x8 | x8 | x8 | x8 | x8 | x8 | x8 | x8 | x8 :|[M:6/8] x6 | x6 | x6 | x6 | %567
 x6 | x6 | x6 | x6 :| x6 | x6 | x6 | c6 | x6 | x6 | x6 | x6 || x6 | x6 | x6 | x6 | x6 | x6 | x6 | %586
 x6 |: x6 | x6 | =c3 B3 | x6 | x6 | x6 | x6 | x6 :|[K:A][M:2/4] x2 | x4 | x4 | x4 | x4 | x4 | x4 | %602
 x4 | x2 :: x2 | x4 | x4 | x4 | GE z2 | x4 | x4 | x4 | x4 | x4 | x4 | x4 | x4 | x4 | !2!d2 !1!c2 | %619
 x4 | x2 :| x2 |][M:3/4] !1!c4 B2 | d2 c2 A2 | F4 G2 | x6 | c4 !0!B2 | x6 | ^^F2xGx=A | %629
 z !1!^D !2!EE EE | !2!c4 !3!^A2 | z !1!E EE EE | z !1!E EE EE | z E EE !2!EE | z E EE EE | %635
 z !1!E EE EE | !1!A4 !1!A2 | z !2!E !2!^D!0!=D !3!C!1!B, | c4 B2 | d2 (3!3!c!2!AA (3A!1!G!0!=G | %640
 F4 G2 | x6 |x4(3xce | x6 | x6 | x6 |][K:C][M:2/4] x4 | x4 | x4 | x4 | x4 | x4 | x4 | x4 | x4 | %655
 x4 | x4 | x4 | x4 | [Ac]4 | x2 [^FA]2 | x4 |: Gc cc | !0!G/(!2!^c/!4!d/)!0!B/!mp! !0!GG- | Gc cc | %665
 G/(^c/d/)B/!mp! GG- | G x x2 | x4 | x4 | x4 | x4 | x4 | x4 | x4 | !1!^c2 de | x4 | x4 | x4 :| %678
[M:6/8] x6 | x6 | x6 | x6 | x6 | x6 | x6 | x6 :: x6 | x6 | x6 | x3 E2 G | x6 | x6 | x6 | x6 | x6 | %695
 x6 | x6 | x6 | x6 | x6 | x6 | x6 ::[K:A] x6 | x6 | x6 | x6 |x!0!B!0!exBe | x6 | x6 | x6 :| %710
[M:3/8] x | x3 | x3 | d2 z | x3 | x3 | x3 | d2 d | x2 :: x | z !3!!0![Bd]2 | !3!c2 z | z [Bd]2 | %723
 x3 | x3 | x3 | x3 | x2 :: x | x3 | x3 | x3 | x3 | x3 | x3 | x3 | x2 :| x | x e2 | x d2 | x3 | %741
 !3!c!3!d x | x d2 | x c2 | x3 | (!2!d!1!c) x | x3 | !1!!3![Be]2 x | x3 | x3 | z !2!!0![GB]2 | %751
 z !2!!3![Gd]2 | z [Gd][Gd] | x3 | x3 | x3 | x3 | x3 | x3 | x3 | x3 | x3 | z [Bd]2 | c2 z | %764
 z [Bd]2 | x3 | x3 | x3 | x3 | x3 |] %770
V:4
 x2 | x8 | x8 | x8 | x8 | x8 | x8 | x8 | x8 | x8 | x8 | x8 | x8 | x8 | x8 | x8 | x8 | x8 | x8 | %19
 x8 | x8 | x8 | x8 | x8 | x8 | x8 | x8 | x8 | x8 | x8 | x8 | x8 | x8 |][M:2/4] x4 | x4 | x4 | x4 | %37
 x4 | x4 | x4 | x4 | x4 | x4 | x4 | x4 | x4 | x4 | x4 | x4 || x4 | x4 | x4 | x4 | x4 | x4 | x4 | %56
 x4 | x4 | x4 | x4 | x4 | x4 | x4 | x4 | x4 | x4 | x4 | x4 | x4 | x4 | x4 | x4 | x4 |][M:3/4] x6 | %74
 x6 | x6 | x6 | x6 | x6 | x6 | x6 | x6 | x6 | x6 | x6 | x6 | x6 | x6 | x6 | x6 | x6 | x6 | x6 | %93
 x6 | x6 | x6 | x6 | x6 | x6 | x6 | x6 | x6 | x6 | x6 | x6 | x6 | x6 | x6 | x6 | x6 | x6 | x6 | %112
 x6 |][M:2/4] x | x4 | x4 | x4 | x4 | x4 | x4 | x4 | x4 :: x4 | x4 | x4 | x4 | x4 | x4 | x4 | x4 | %130
 x4 | x4 | x4 | x4 | x4 | x4 | x4 |1 x4 :|2 x3 |][M:3/8] x3 | x3 | x3 | x3 | x3 | x3 | x3 | x3 | %147
 x3 | x3 | x3 | x3 | x3 | x3 | x3 | x3 | x3 | x3 | x3 | x3 | x3 | x3 | x3 | x3 | x3 | x3 | x3 | %166
 x3 | x3 | x3 | x3 | x3 | x3 | x3 | x3 | x3 | x3 | x3 | x3 | x3 | x3 | x3 | x3 | x3 | x3 | x3 | %185
 x3 | x3 |][K:G][M:3/4] x2 | x6 | x6 | x6 | x6 | x6 | x6 | x6 | x6 | x6 | x6 | x6 | x6 | x6 | x6 | %202
 x6 | x6 | x6 | x6 | x6 | x6 | x6 | x6 | x6 | x6 | x6 | x6 | x6 | x6 | x6 | x6 | x6 | x6 |] %220
[M:2/4] x | x4 | x4 | x4 | x4 | x4 | x4 | x4 | x3 :: x | x4 | x4 | x4 | x4 | x4 | x4 | x4 | x4 | %238
 x4 | x4 | x4 | x4 |][M:2/4] x4 | x4 | x4 | x4 | x4 | x4 | x4 | x4 | x4 | x4 | x4 | x4 | x4 | x4 | %256
 x4 | x4 | x4 | x4 | x4 | x4 | x4 | x4 | x4 | x4 | x4 | x4 | x4 | x4 | x4 | x4 | x4 | x4 | x4 | %275
 x4 | x4 | x4 | x4 | x4 | x4 | x4 | x4 | x4 | x4 | x4 | x4 | x4 | x4 | x4 |][M:4/4] x8 | x8 | x8 | %293
 x8 | x8 | x8 | x8 |1 x8 :|2 x8 |: x8 | x8 | x8 | x8 | x8 | x8 | x8 |1 x8 :|2 x8 |][M:6/8] x3 | %309
 x6 | x6 | x6 | x6 | x6 | x6 | x6 | x3 :: x3 | x6 | x6 | x6 | x6 | x6 | x6 | x6 | x3 :| x3 | x6 | %328
 x6 | x6 | x6 | x6 | x6 | x6 | x6 | x6 | x6 |][M:4/4] x8 | x8 | x8 | x8 | x8 | x8 | x8 | x8 :: x8 | %346
 x8 | x8 | x8 | x8 | x8 | x8 | x8 |][M:6/8] x | x6 | x6 | x6 | x6 | x6 | x6 | x6 | x5 |: x | x6 | %364
 x6 | x6 | x6 | x6 | x6 | x6 | x5 ::[K:E] x | x6 | x6 | x6 | x6 | x6 | x6 | x6 | x5 :: x | x6 | %382
 x6 | x6 | x6 | x6 | x6 | x6 | x5 :|[K:G][M:3/8] x3 | x3 | x3 | x3 | x3 | x3 | x3 | x3 :: x3 | x3 | %399
 x3 | x3 | x3 | x3 | x3 |1 x3 :|2 x3 |:[K:E] x3 | x3 | x3 | x3 | x3 | x3 | x3 | x3 :| %414
[K:D][M:3/4] x2 | x6 | x6 | x6 | x6 | x6 | x6 | x6 | x6 | x6 | x6 | x6 | x6 | x6 | x6 | x6 | x6 | %431
 x6 | x6 | x6 | x6 | x6 | x6 | x6 | x6 | x6 | x6 | x6 | x6 |][M:2/4] x | x4 | x4 | x4 | x4 | x4 | %449
 x4 | x4 | x3 :| x | x4 | x4 | x4 | x4 | x4 | x4 | x4 | x4 | x4 | x4 | x4 | x4 | x4 | x4 | x4 | %468
 x4 | x4 | x4 | x4 | x4 | x4 | x4 | x4 | x4 |][M:2/4] x | x4 | x4 | x4 | x4 | x4 | x4 | x4 | x3 :: %486
 x | x4 | x4 | x4 | x4 | x4 | x4 | x4 | x4 | x4 | x4 | x4 | x4 | x4 | x4 | x4 | x4 | x4 | x4 | x4 | %506
 x4 :|[K:F][M:3/4] x6 | x6 | x6 | x6 | x6 | x6 | x6 | x6 | x6 | x6 | x6 | x6 | x6 | x6 | x6 | x6 | %523
 x6 | x6 | x6 | x6 | x6 | x6 | x6 | x6 | x6 | x6 | x6 | x6 | x6 | x6 | x6 | x6 |][K:D][M:4/4] x8 | %540
 x8 | x8 | x8 | x8 | x8 | x8 | x8 :: x8 | x8 | x8 | x8 | x8 | x8 | x8 | x8 | x8 | x8 | x8 | x8 | %559
 x8 | x8 | x8 | x8 :|[M:6/8] x6 | x6 | x6 | x6 | x6 | x6 | x6 | x6 :| x6 | x6 | x6 | x6 | x6 | x6 | %577
 x6 | x6 || x6 | x6 | x6 | x6 | x6 | x6 | x6 | x6 |: x6 | x6 | x6 | x6 | x6 | x6 | x6 | x6 :| %595
[K:A][M:2/4] x2 | x4 | x4 | x4 | x4 | x4 | x4 | x4 | x2 :: x2 | x4 | x4 | x4 | x4 | x4 | x4 | x4 | %612
 x4 | x4 | x4 | x4 | x4 | x4 | x4 | x4 | x2 :| x2 |][M:3/4] x6 | x6 | x6 | x6 | x6 | x6 | x6 | x6 | %630
 z E EE EE | x6 | x6 | x6 | x6 | x6 | z !1!E EE EE | x6 | x6 | x6 | x6 | x6 | x6 | x6 | x6 | x6 |] %646
[K:C][M:2/4] x4 | x4 | x4 | x4 | x4 | x4 | x4 | x4 | x4 | x4 | x4 | x4 | x4 | x4 | x4 | x4 |: x4 | %663
 x4 | x4 | x4 | x4 | x4 | x4 | x4 | x4 | x4 | x4 | x4 | x4 | x4 | x4 | x4 :|[M:6/8] x6 | x6 | x6 | %681
 x6 | x6 | x6 | x6 | x6 :: x6 | x6 | x6 | x6 | x6 | x6 | x6 | x6 | x6 | x6 | x6 | x6 | x6 | x6 | %700
 x6 | x6 ::[K:A] x6 | x6 | x6 | x6 | x6 | x6 | x6 | x6 :|[M:3/8] x | x3 | x3 | x3 | x3 | x3 | x3 | %717
 x3 | x2 :: x | x3 | x3 | x3 | x3 | x3 | x3 | x3 | x2 :: x | x3 | x3 | x3 | x3 | x3 | x3 | x3 | %736
 x2 :| x | x3 | x3 | x3 | x3 | x3 | x3 | x3 | x3 | x3 | x3 | x3 | x3 | x3 | x3 | x3 | x3 | x3 | %755
 x3 | x3 | x3 | x3 | x3 | x3 | x3 | x3 | x3 | x3 | x3 | x3 | x3 | x3 | x3 |] %770

